libs/ui/packages/crypto-icons/src/svg/ZCL.svg

<svg width="24" height="24" viewBox="0 0 24 24" fill="none">
<path d="M11.994 20.25C7.43775 20.247 3.75 16.5525 3.75 11.9895C3.75 7.43625 7.449 3.747 12.0112 3.75C16.56 3.753 20.256 7.4505 20.25 12.0015C20.241 16.503 16.623 20.244 11.994 20.25ZM8.63175 15.7725C8.655 15.7283 8.673 15.693 8.69025 15.6645C9.42825 14.3625 10.1677 13.062 10.9072 11.763C11.5552 10.6245 12.2017 9.4845 12.846 8.3445C12.8549 8.32261 12.8707 8.30421 12.891 8.29204C12.9113 8.27987 12.935 8.2746 12.9585 8.277C13.7115 8.28075 14.4675 8.28075 15.2197 8.28075H15.327C14.2815 10.1258 13.2435 11.958 12.1972 13.8008C12.2347 13.8038 12.2557 13.8038 12.276 13.8038C14.1652 13.8038 16.053 13.8045 17.94 13.8068C18.0037 13.8068 18.024 13.7835 18.0382 13.728C18.3242 12.7193 18.3513 11.6547 18.117 10.6328C17.835 9.39525 17.2162 8.3505 16.3035 7.47675C15.8939 7.08628 15.4289 6.75849 14.9235 6.504C13.668 5.8635 12.3457 5.66025 10.9597 5.904C9.57975 6.14925 8.41725 6.801 7.464 7.8315C7.33875 7.9665 7.2255 8.11125 7.10625 8.2515C7.10925 8.25975 7.11525 8.2665 7.11825 8.274H12.5032C12.4732 8.33025 12.453 8.37075 12.4297 8.409C12.102 8.991 11.7697 9.57 11.445 10.1528C11.4322 10.1814 11.4106 10.2053 11.3834 10.2209C11.3562 10.2365 11.3247 10.2431 11.2935 10.2398C9.597 10.2368 7.9005 10.236 6.2055 10.2368H6.1035C5.244 12.939 6.45825 16.3283 9.504 17.6843C12.453 19.0013 15.5452 17.7893 16.995 15.7665C14.2087 15.7718 11.421 15.774 8.6325 15.7718L8.63175 15.7725ZM18.114 17.196C19.1602 16.0335 20.0902 14.121 20.0317 11.8238C19.9852 9.9315 19.3372 8.26875 18.126 6.79875C17.748 7.17975 17.379 7.5495 17.013 7.91925C18.933 10.2285 19.0155 13.6433 17.0332 16.095L18.114 17.196Z" fill="#C87035"/>
</svg>

<svg width="24" height="24" viewBox="0 0 24 24" fill="none"><path fill="#c87035" d="M11.994 20.25c-4.556-.003-8.244-3.698-8.244-8.26 0-4.554 3.699-8.243 8.261-8.24 4.549.003 8.245 3.7 8.239 8.252-.009 4.501-3.627 8.242-8.256 8.248m-3.362-4.477q.034-.067.058-.108 1.108-1.953 2.217-3.902.973-1.708 1.939-3.418a.11.11 0 0 1 .113-.068q1.13.005 2.26.004h.108l-3.13 5.52.079.003q2.834 0 5.664.003c.064 0 .084-.024.098-.079a6.24 6.24 0 0 0-1.735-6.251 5.7 5.7 0 0 0-1.38-.973 6.16 6.16 0 0 0-3.963-.6c-1.38.245-2.543.897-3.496 1.928-.125.135-.239.28-.358.42.003.008.01.014.012.022h5.385c-.03.056-.05.097-.073.135-.328.582-.66 1.161-.985 1.744a.15.15 0 0 1-.152.087q-2.544-.005-5.087-.003h-.103c-.859 2.702.355 6.091 3.401 7.447 2.949 1.317 6.041.105 7.491-1.918q-4.18.009-8.362.006zm9.482 1.423c1.046-1.163 1.976-3.075 1.918-5.372-.047-1.892-.695-3.555-1.906-5.025-.378.38-.747.75-1.113 1.12 1.92 2.31 2.002 5.724.02 8.176z"/></svg>
